src/images/GithubIcon.svg

<svg width="13" height="14" viewBox="0 0 13 14" fill="none" xmlns="http://www.w3.org/2000/svg">
<path d="M5.09673 11.2879C2.27622 12.1439 2.27622 9.86115 1.14801 9.5758M9.04545 13V10.7914C9.06661 10.5193 9.03027 10.2457 8.93884 9.98887C8.84741 9.73204 8.703 9.49785 8.51519 9.30186C10.2865 9.10212 12.148 8.42298 12.148 5.30696C12.1479 4.51016 11.8449 3.74392 11.3019 3.16683C11.559 2.46972 11.5408 1.69919 11.2511 1.01529C11.2511 1.01529 10.5854 0.815546 9.04545 1.85993C7.75253 1.50542 6.38965 1.50542 5.09673 1.85993C3.55673 0.815546 2.89109 1.01529 2.89109 1.01529C2.60135 1.69919 2.58317 2.46972 2.84032 3.16683C2.29321 3.7482 1.98995 4.52137 1.99416 5.32408C1.99416 8.41728 3.8557 9.09641 5.62698 9.31898C5.44139 9.513 5.29826 9.74439 5.2069 9.99807C5.11554 10.2518 5.078 10.5221 5.09673 10.7914V13" stroke="white" stroke-width="1.5" stroke-linecap="round" stroke-linejoin="round"/>
</svg>

<svg xmlns="http://www.w3.org/2000/svg" fill="none" viewBox="0 0 13 14">
  <path stroke="currentColor" stroke-linecap="round" stroke-linejoin="round" stroke-width="1.5" d="M5.1 11.29c-2.82.85-2.82-1.43-3.95-1.71M9.05 13v-2.2a2 2 0 0 0-.53-1.5c1.77-.2 3.63-.88 3.63-4 0-.79-.3-1.56-.85-2.13.26-.7.24-1.47-.05-2.15 0 0-.66-.2-2.2.84a7.5 7.5 0 0 0-3.95 0C3.56.82 2.9 1.02 2.9 1.02c-.3.68-.32 1.45-.06 2.15a3 3 0 0 0-.85 2.15c0 3.1 1.87 3.78 3.64 4a2 2 0 0 0-.53 1.47V13"/>
</svg>
